X: 1
T: TIN WEDDING -- HORNPIPE
B: Ryan's Mammoth Collection of Fiddle Tunes
R: hornpipe
M: C|
L: 1/8
Z: Contributed 20000425172047 by John Chambers jchambers:casc.com
K: C
uG2 \
| cGEG CGEG | FGDG FGDG | EGcd "4"ecfe | dcBA GGAB |
| cGEG CGEG | FGDG FGDG | EGcd "4"edcB | [c2E2][c2E2][c2E2] :|
|: (uBc) \
| dBGB dBgf | ecGc "4"ecag | ^fdAd fdba | gafg efd"4"e |
| cGEG CGEG | FGDG FGDG | EGcd "4"edcB | [c2E2][c2E2][c2E2] :|
